X: 31521
T: Paddy's Leather Breeches
R: jig
M: 6/8
K: Dmajor
|:BBB f2e|fBB f2e|BBB f2e|cAA fec|
BBB f2e|fBB f2e|fga efa|cAA fec:|
|:a3 f2e|fBB f2e|a3 f2e|cAA fec|
a3 f2e|fBB f2 e|fga efa|cAA fec:|
|:~B3 ~B3|~B3 fec|~B3 Bcd|cAA fec|
~B3 ~B3|~B3 f2e|fga efa|cAA fec:|
|:aga f2e|fBB f2e|aga f2e|cAA fec|
aga f2e|fBB f2 e|fga efa|cAA fec:|

